packages/foundations/assets/icons/functional/images/notification/exclamation_mark_circle_28.svg

<svg width="28" height="28" viewBox="0 0 28 28" fill="none" xmlns="http://www.w3.org/2000/svg">
<g clip-path="url(#clip0_187_174)">
<path fill-rule="evenodd" clip-rule="evenodd" d="M14 1.75C20.754 1.75 26.25 7.24614 26.25 14C26.25 20.7539 20.754 26.25 14 26.25C7.24614 26.25 1.75 20.7539 1.75 14C1.75 7.24614 7.24614 1.75 14 1.75ZM14 3.5C8.20312 3.5 3.5 8.20312 3.5 14C3.5 19.7969 8.20312 24.5 14 24.5C19.7969 24.5 24.5 19.7969 24.5 14C24.5 8.20312 19.7969 3.5 14 3.5ZM14 7.875C13.5078 7.875 13.125 8.25702 13.125 8.75V15.5312C13.125 16.0513 13.5352 16.4062 14 16.4062C14.4922 16.4062 14.875 16.0242 14.875 15.5312V8.75C14.875 8.09323 14.3828 7.875 14 7.875ZM14 20.4257C13.3711 20.4257 12.8243 19.8789 12.8243 19.25C12.8243 18.5938 13.3711 18.0742 14 18.0742C14.6562 18.0742 15.1758 18.5938 15.1758 19.25C15.1758 19.8789 14.6562 20.4257 14 20.4257Z" fill="#1A1C1F"/>
</g>
<defs>
<clipPath id="clip0_187_174">
<rect width="28" height="28" fill="white"/>
</clipPath>
</defs>
</svg>

<svg xmlns="http://www.w3.org/2000/svg" width="28" height="28" fill="none"><g clip-path="url(#a)"><path fill="#1A1C1F" fill-rule="evenodd" d="M14 1.75c6.754 0 12.25 5.496 12.25 12.25S20.754 26.25 14 26.25 1.75 20.754 1.75 14 7.246 1.75 14 1.75m0 1.75C8.203 3.5 3.5 8.203 3.5 14S8.203 24.5 14 24.5 24.5 19.797 24.5 14 19.797 3.5 14 3.5m0 4.375a.863.863 0 0 0-.875.875v6.781c0 .52.41.875.875.875a.863.863 0 0 0 .875-.875V8.75c0-.657-.492-.875-.875-.875m0 12.55a1.203 1.203 0 0 1-1.176-1.175c0-.656.547-1.176 1.176-1.176.656 0 1.176.52 1.176 1.176 0 .629-.52 1.176-1.176 1.176" clip-rule="evenodd"/></g><defs><clipPath id="a"><path fill="#fff" d="M0 0h28v28H0z"/></clipPath></defs></svg>
